img/toolbar/pumps.svg

<svg height="24" width="24" xmlns="http://www.w3.org/2000/svg" xmlns:xlink="http://www.w3.org/1999/xlink">
  <linearGradient id="a">
    <stop offset="0" stop-color="#2d77e6"/>
    <stop offset="1" stop-color="#71a3ee"/>
  </linearGradient>
  <linearGradient id="b">
    <stop offset="0" stop-color="#418af9"/>
    <stop offset=".2" stop-color="#fdfdfd"/>
    <stop offset=".40000001" stop-color="#418af9"/>
    <stop offset="1" stop-color="#aecbf8"/>
  </linearGradient>
  <linearGradient id="c" gradientUnits="userSpaceOnUse" x1="3" x2="3" xlink:href="#b" y1=".899999" y2="10.899999"/>
  <linearGradient id="d" gradientUnits="userSpaceOnUse" x1="4" x2="4" xlink:href="#a" y1=".899999" y2="10.899999"/>
  <linearGradient id="e" gradientUnits="userSpaceOnUse" x1="3" x2="3" xlink:href="#b" y1="12.9" y2="22.9"/>
  <linearGradient id="f" gradientUnits="userSpaceOnUse" x1="4" x2="4" xlink:href="#a" y1="12.9" y2="22.9"/>
  <g fill-rule="evenodd">
    <path d="m5.0095844 4h7.9904156v-4l7 6.0319489-7 5.9680511v-4h-7.9904156z" fill="#f00" opacity=".5"/>
    <path d="m0 .59999998h5.4l1 1.40000002v8l-1 1.4h-5.4" fill="url(#c)" stroke="url(#d)" stroke-linejoin="round" stroke-width="1.2"/>
    <path d="m5.0095844 16h11.9904156v-4l7 6.031949-7 5.968051v-4h-11.9904156z" fill="#008616" opacity=".5"/>
    <path d="m0 12.6h5.4l1 1.4v8l-1 1.4h-5.4" fill="url(#e)" stroke="url(#f)" stroke-linejoin="round" stroke-width="1.2"/>
  </g>
</svg>

<?xml version="1.0" encoding="UTF-8" standalone="no"?>
<svg
   xmlns:dc="http://purl.org/dc/elements/1.1/"
   xmlns:cc="http://creativecommons.org/ns#"
   xmlns:rdf="http://www.w3.org/1999/02/22-rdf-syntax-ns#"
   xmlns:svg="http://www.w3.org/2000/svg"
   xmlns="http://www.w3.org/2000/svg"
   xmlns:xlink="http://www.w3.org/1999/xlink"
   version="1.0"
   id="svg9541"
   height="24"
   width="24">
  <defs
     id="defs9543">
    <linearGradient
       id="linearGradient4718">
      <stop
         id="stop4720"
         offset="0"
         style="stop-color:#aa803b;stop-opacity:1;" />
      <stop
         id="stop4722"
         offset="1"
         style="stop-color:#ccb383;stop-opacity:1;" />
    </linearGradient>
    <linearGradient
       id="linearGradient4672">
      <stop
         id="stop4674"
         offset="0"
         style="stop-color:#ffe168;stop-opacity:1;" />
      <stop
         id="stop4676"
         offset="1"
         style="stop-color:#e4dcd4;stop-opacity:1;" />
    </linearGradient>
    <linearGradient
       id="linearGradient10108">
      <stop
         id="stop10110"
         offset="0"
         style="stop-color:#ff0000;stop-opacity:1;" />
      <stop
         style="stop-color:#ff9d9d;stop-opacity:1;"
         offset="0.5"
         id="stop10116" />
      <stop
         id="stop10112"
         offset="1"
         style="stop-color:#ff0000;stop-opacity:1;" />
    </linearGradient>
    <linearGradient
       id="linearGradient10086">
      <stop
         id="stop10088"
         offset="0"
         style="stop-color:#48516b;stop-opacity:1;" />
      <stop
         style="stop-color:#cedae2;stop-opacity:1;"
         offset="0.30000001"
         id="stop10094" />
      <stop
         id="stop10096"
         offset="0.40000001"
         style="stop-color:#48516b;stop-opacity:1;" />
      <stop
         id="stop10090"
         offset="1"
         style="stop-color:#8eb0c6;stop-opacity:1;" />
    </linearGradient>
    <linearGradient
       id="linearGradient10076">
      <stop
         id="stop10078"
         offset="0"
         style="stop-color:#2d77e6;stop-opacity:1;" />
      <stop
         id="stop10080"
         offset="1"
         style="stop-color:#71a3ee;stop-opacity:1;" />
    </linearGradient>
    <linearGradient
       id="linearGradient10064">
      <stop
         id="stop10066"
         offset="0"
         style="stop-color:#418af9;stop-opacity:1;" />
      <stop
         style="stop-color:#fdfdfd;stop-opacity:1;"
         offset="0.2"
         id="stop10072" />
      <stop
         id="stop10074"
         offset="0.40000001"
         style="stop-color:#418af9;stop-opacity:1;" />
      <stop
         id="stop10068"
         offset="1"
         style="stop-color:#aecbf8;stop-opacity:1;" />
    </linearGradient>
    <linearGradient
       gradientTransform="translate(0,-6.1000005)"
       gradientUnits="userSpaceOnUse"
       y2="17"
       x2="3"
       y1="7"
       x1="3"
       id="linearGradient10070"
       xlink:href="#linearGradient10064" />
    <linearGradient
       gradientTransform="translate(0,-6.1000005)"
       gradientUnits="userSpaceOnUse"
       y2="17"
       x2="4"
       y1="7"
       x1="4"
       id="linearGradient10082"
       xlink:href="#linearGradient10076" />
    <linearGradient
       y2="17"
       x2="3"
       y1="7"
       x1="3"
       gradientTransform="translate(0,5.8999995)"
       gradientUnits="userSpaceOnUse"
       id="linearGradient4206"
       xlink:href="#linearGradient10064" />
    <linearGradient
       y2="17"
       x2="4"
       y1="7"
       x1="4"
       gradientTransform="translate(0,5.8999995)"
       gradientUnits="userSpaceOnUse"
       id="linearGradient4208"
       xlink:href="#linearGradient10076" />
  </defs>
  <metadata
     id="metadata9546">
    <rdf:RDF>
      <cc:Work
         rdf:about="">
        <dc:format>image/svg+xml</dc:format>
        <dc:type
           rdf:resource="http://purl.org/dc/dcmitype/StillImage" />
        <dc:title></dc:title>
      </cc:Work>
    </rdf:RDF>
  </metadata>
  <g
     id="layer1">
    <path
       id="rect10388"
       d="M 5.0095844,4 13,4 13,0 20,6.0319489 13,12 13,8 5.0095844,8 Z"
       style="opacity:0.5;fill:#ff0000;fill-opacity:1;fill-rule:evenodd;stroke:none;stroke-width:0.5;stroke-linecap:round;stroke-linejoin:round;stroke-miterlimit:4;stroke-dashoffset:21.44399834;stroke-opacity:1" />
    <path
       id="path9553"
       d="M 0,0.59999998 L 5.4,0.59999998 L 6.4,2 L 6.4,10 L 5.4,11.4 L 0,11.4"
       style="fill:url(#linearGradient10070);fill-opacity:1;fill-rule:evenodd;stroke:url(#linearGradient10082);stroke-width:1.20000005;stroke-linecap:butt;stroke-linejoin:round;stroke-miterlimit:4;stroke-dasharray:none;stroke-opacity:1" />
    <path
       style="opacity:0.5;fill:#008616;fill-opacity:1;fill-rule:evenodd;stroke:none;stroke-width:0.5;stroke-linecap:round;stroke-linejoin:round;stroke-miterlimit:4;stroke-dashoffset:21.44399834;stroke-opacity:1"
       d="M 5.0095844,16 17,16 17,12 24,18.031949 17,24 17,20 5.0095844,20 Z"
       id="path4202" />
    <path
       style="fill:url(#linearGradient4206);fill-opacity:1;fill-rule:evenodd;stroke:url(#linearGradient4208);stroke-width:1.20000005;stroke-linecap:butt;stroke-linejoin:round;stroke-miterlimit:4;stroke-dasharray:none;stroke-opacity:1"
       d="m 0,12.6 5.4,0 1,1.4 0,8 -1,1.4 -5.4,0"
       id="path4204" />
  </g>
</svg>
